; generated by Slic3r 1.3.0 on 2020-03-29 at 12:43:19

; external perimeters extrusion width = 0.44mm (3.38mm^3/s)
; perimeters extrusion width = 0.48mm (7.54mm^3/s)
; infill extrusion width = 0.48mm (10.05mm^3/s)
; solid infill extrusion width = 0.48mm (2.51mm^3/s)
; top infill extrusion width = 0.48mm (1.88mm^3/s)

M107
M190 S70 ; set bed temperature and wait for it to be reached
M104 S215 ; set temperature
G28 ; home all axes
G1 Z5 F5000 ; lift nozzle

; Filament gcode

M109 S215 ; set temperature and wait for it to be reached
G21 ; set units to millimeters
G90 ; use absolute coordinates
M82 ; use absolute distances for extrusion
G92 E0
G1 Z0.350 F7800.000
G1 E-2.00000 F2400.00000
G92 E0
G1 X128.772 Y71.741 F7800.000
G1 E2.00000 F2400.00000
G1 F1800
G1 X129.915 Y69.753 E2.20854
G1 X131.668 Y68.274 E2.41708
G1 X133.820 Y67.481 E2.62563
G1 X135.000 Y67.375 E2.73334
G1 X215.000 Y67.375 E10.00770
G1 X217.259 Y67.772 E10.21624
G1 X219.247 Y68.915 E10.42479
G1 X220.726 Y70.668 E10.63333
G1 X221.519 Y72.820 E10.84187
G1 X221.625 Y74.000 E10.94958
G1 X221.625 Y176.000 E20.22440
G1 X221.228 Y178.259 E20.43294
G1 X220.085 Y180.247 E20.64148
G1 X218.332 Y181.726 E20.85003
G1 X216.180 Y182.519 E21.05857
G1 X215.000 Y182.625 E21.16628
G1 X135.000 Y182.625 E28.44064
G1 X132.741 Y182.228 E28.64919
G1 X130.753 Y181.085 E28.85773
G1 X129.274 Y179.332 E29.06627
G1 X128.481 Y177.180 E29.27481
G1 X128.375 Y176.000 E29.38252
G1 X128.375 Y74.000 E38.65734
G1 X128.762 Y71.800 E38.86042
G1 E36.86042 F2400.00000
G92 E0
G1 X213.400 Y174.400 F7800.000
G1 E2.00000 F2400.00000
G1 F1800
G1 X136.600 Y174.400 E8.98343
G1 X136.600 Y75.600 E17.96732
G1 X213.400 Y75.600 E24.95075
G1 X213.400 Y174.340 E33.92917
G1 X214.025 Y175.025 F7800.000
G1 F1800
G1 X135.975 Y175.025 E41.02625
G1 X135.975 Y74.975 E50.12377
G1 X214.025 Y74.975 E57.22085
G1 X214.025 Y174.965 E66.31292
G1 X214.650 Y175.650 F7800.000
G1 F1800
G1 X135.350 Y175.650 E73.52363
G1 X135.350 Y74.350 E82.73480
G1 X214.650 Y74.350 E89.94551
G1 X214.650 Y175.590 E99.15122
G1 X214.268 Y175.531 F7800.000
G1 E97.15122 F2400.00000
G92 E0
G1 X212.709 Y173.842 F7800.000
G1 E2.00000 F2400.00000
G1 F1800
G1 X212.842 Y173.709 E2.01714
G1 X212.842 Y172.821 E2.09822
G1 X211.821 Y173.842 E2.23003
G1 X210.934 Y173.842 E2.31111
G1 X212.842 Y171.934 E2.55758
G1 X212.842 Y171.046 E2.63866
G1 X210.046 Y173.842 E2.99980
G1 X209.158 Y173.842 E3.08088
G1 X212.842 Y170.158 E3.55668
G1 X212.842 Y169.270 E3.63776
G1 X208.270 Y173.842 E4.22823
G1 X207.383 Y173.842 E4.30931
G1 X212.842 Y168.383 E5.01444
G1 X212.842 Y167.495 E5.09552
G1 X206.495 Y173.842 E5.91532
G1 X205.607 Y173.842 E5.99640
G1 X212.842 Y166.607 E6.93087
G1 X212.842 Y165.720 E7.01195
G1 X204.720 Y173.842 E8.06108
G1 X203.832 Y173.842 E8.14216
G1 X212.842 Y164.832 E9.30595
G1 X212.842 Y163.944 E9.38703
G1 X202.944 Y173.842 E10.66549
G1 X202.057 Y173.842 E10.74657
G1 X212.842 Y163.057 E12.13970
G1 X212.842 Y162.169 E12.22078
G1 X201.169 Y173.842 E13.72857
G1 X200.281 Y173.842 E13.80965
G1 X212.842 Y161.281 E15.43211
G1 X212.842 Y160.393 E15.51319
G1 X199.393 Y173.842 E17.25031
G1 X198.506 Y173.842 E17.33139
G1 X212.842 Y159.506 E19.18318
G1 X212.842 Y158.618 E19.26426
G1 X197.618 Y173.842 E21.23071
G1 X196.730 Y173.842 E21.31179
G1 X212.842 Y157.730 E23.39291
G1 X212.842 Y156.843 E23.47399
G1 X195.843 Y173.842 E25.66977
G1 X194.955 Y173.842 E25.75085
G1 X212.842 Y155.955 E28.06130
G1 X212.842 Y155.067 E28.14238
G1 X194.067 Y173.842 E30.56749
G1 X193.180 Y173.842 E30.64857
G1 X212.842 Y154.180 E33.18835
G1 X212.842 Y153.292 E33.26943
G1 X192.292 Y173.842 E35.92388
G1 X191.404 Y173.842 E36.00496
G1 X212.842 Y152.404 E38.77407
G1 X212.842 Y151.516 E38.85515
G1 X190.516 Y173.842 E41.73892
G1 X189.629 Y173.842 E41.82000
G1 X212.842 Y150.629 E44.81844
G1 X212.842 Y149.741 E44.89952
G1 X188.741 Y173.842 E48.01263
G1 X187.853 Y173.842 E48.09371
G1 X212.842 Y148.853 E51.32148
G1 X212.842 Y147.966 E51.40256
G1 X186.966 Y173.842 E54.74499
G1 X186.078 Y173.842 E54.82607
G1 X212.842 Y147.078 E58.28317
G1 X212.842 Y146.190 E58.36426
G1 X185.190 Y173.842 E61.93602
G1 X184.303 Y173.842 E62.01710
G1 X212.842 Y145.303 E65.70353
G1 X212.842 Y144.415 E65.78461
G1 X183.415 Y173.842 E69.58571
G1 X182.527 Y173.842 E69.66679
G1 X212.842 Y143.527 E73.58255
G1 X212.842 Y142.640 E73.66363
G1 X181.640 Y173.842 E77.69406
G1 X180.752 Y173.842 E77.77514
G1 X212.842 Y141.752 E81.92024
G1 X212.842 Y140.864 E82.00132
G1 X179.864 Y173.842 E86.26107
G1 X178.976 Y173.842 E86.34216
G1 X212.842 Y139.976 E90.71658
G1 X212.842 Y139.089 E90.79766
G1 X178.089 Y173.842 E95.28675
G1 X177.201 Y173.842 E95.36783
G1 X212.842 Y138.201 E99.97158
G1 X212.842 Y137.313 E100.05266
G1 X176.313 Y173.842 E104.77108
G1 X175.426 Y173.842 E104.85216
G1 X212.842 Y136.426 E109.68525
G1 X212.842 Y135.538 E109.76633
G1 X174.538 Y173.842 E114.71408
G1 X173.650 Y173.842 E114.79516
G1 X212.842 Y134.650 E119.85758
G1 X212.842 Y133.763 E119.93866
G1 X172.763 Y173.842 E125.11574
G1 X171.875 Y173.842 E125.19682
G1 X212.842 Y132.875 E130.48856
G1 X212.842 Y131.987 E130.56965
G1 X170.987 Y173.842 E135.97606
G1 X170.099 Y173.842 E136.05714
G1 X212.842 Y131.099 E141.57821
G1 X212.842 Y130.212 E141.65929
G1 X169.212 Y173.842 E147.29504
G1 X168.324 Y173.842 E147.37612
G1 X212.842 Y129.324 E153.12653
G1 X212.842 Y128.436 E153.20761
G1 X167.436 Y173.842 E159.07268
G1 X166.549 Y173.842 E159.15376
G1 X212.842 Y127.549 E165.13350
G1 X212.842 Y126.661 E165.21458
G1 X165.661 Y173.842 E171.30898
G1 X164.773 Y173.842 E171.39006
G1 X212.842 Y125.773 E177.59913
G1 X212.842 Y124.886 E177.68021
G1 X163.886 Y173.842 E184.00395
G1 X162.998 Y173.842 E184.08503
G1 X212.842 Y123.998 E190.52343
G1 X212.842 Y123.110 E190.60451
G1 X162.110 Y173.842 E197.15757
G1 X161.222 Y173.842 E197.23865
G1 X212.842 Y122.222 E203.90638
G1 X212.842 Y121.335 E203.98746
G1 X160.335 Y173.842 E210.76986
G1 X159.447 Y173.842 E210.85094
G1 X212.842 Y120.447 E217.74800
G1 X212.842 Y119.559 E217.82908
G1 X158.559 Y173.842 E224.84081
G1 X157.672 Y173.842 E224.92189
G1 X212.842 Y118.672 E232.04828
G1 X212.842 Y117.784 E232.12936
G1 X156.784 Y173.842 E239.37042
G1 X155.896 Y173.842 E239.45150
G1 X212.842 Y116.896 E246.80722
G1 X212.842 Y116.009 E246.88830
G1 X155.009 Y173.842 E254.35869
G1 X154.121 Y173.842 E254.43977
G1 X212.842 Y115.121 E262.02482
G1 X212.842 Y114.233 E262.10590
G1 X153.233 Y173.842 E269.80562
G1 X152.345 Y173.842 E269.88670
G1 X212.842 Y113.346 E277.70109
G1 X212.842 Y112.458 E277.78217
G1 X151.458 Y173.842 E285.71121
G1 X150.570 Y173.842 E285.79230
G1 X212.842 Y111.570 E293.83601
G1 X212.842 Y110.682 E293.91709
G1 X149.682 Y173.842 E302.07547
G1 X148.795 Y173.842 E302.15655
G1 X212.842 Y109.795 E310.42960
G1 X212.842 Y108.907 E310.51068
G1 X147.907 Y173.842 E318.89839
G1 X147.019 Y173.842 E318.97947
G1 X212.842 Y108.019 E327.48184
G1 X212.842 Y107.132 E327.56292
G1 X146.132 Y173.842 E336.17996
G1 X145.244 Y173.842 E336.26104
G1 X212.842 Y106.244 E344.99275
G1 X212.842 Y105.356 E345.07383
G1 X144.356 Y173.842 E353.92020
G1 X143.469 Y173.842 E354.00128
G1 X212.842 Y104.469 E362.96232
G1 X212.842 Y103.581 E363.04340
G1 X142.581 Y173.842 E372.11910
G1 X141.693 Y173.842 E372.20018
G1 X212.842 Y102.693 E381.39055
G1 X212.842 Y101.805 E381.47163
G1 X140.805 Y173.842 E390.77666
G1 X139.918 Y173.842 E390.85775
G1 X212.842 Y100.918 E400.27744
G1 X212.842 Y100.030 E400.35852
G1 X139.030 Y173.842 E409.89289
G1 X138.142 Y173.842 E409.97397
G1 X212.842 Y99.142 E419.62300
G1 X212.842 Y98.255 E419.70408
G1 X137.255 Y173.842 E429.46777
G1 X137.158 Y173.842 E429.47657
G1 X137.158 Y173.050 E429.54885
G1 X212.842 Y97.367 E439.32498
G1 X212.842 Y96.479 E439.40606
G1 X137.158 Y172.162 E449.18219
G1 X137.158 Y171.275 E449.26327
G1 X212.842 Y95.592 E459.03940
G1 X212.842 Y94.704 E459.12048
G1 X137.158 Y170.387 E468.89661
G1 X137.158 Y169.499 E468.97769
G1 X212.842 Y93.816 E478.75382
G1 X212.842 Y92.928 E478.83490
G1 X137.158 Y168.612 E488.61103
G1 X137.158 Y167.724 E488.69211
G1 X212.842 Y92.041 E498.46823
G1 X212.842 Y91.153 E498.54932
G1 X137.158 Y166.836 E508.32544
G1 X137.158 Y165.949 E508.40652
G1 X212.842 Y90.265 E518.18265
G1 X212.842 Y89.378 E518.26373
G1 X137.158 Y165.061 E528.03986
G1 X137.158 Y164.173 E528.12094
G1 X212.842 Y88.490 E537.89707
G1 X212.842 Y87.602 E537.97815
G1 X137.158 Y163.286 E547.75428
G1 X137.158 Y162.398 E547.83536
G1 X212.842 Y86.715 E557.61149
G1 X212.842 Y85.827 E557.69257
G1 X137.158 Y161.510 E567.46870
G1 X137.158 Y160.622 E567.54978
G1 X212.842 Y84.939 E577.32590
G1 X212.842 Y84.051 E577.40699
G1 X137.158 Y159.735 E587.18311
G1 X137.158 Y158.847 E587.26419
G1 X212.842 Y83.164 E597.04032
G1 X212.842 Y82.276 E597.12140
G1 X137.158 Y157.959 E606.89753
G1 X137.158 Y157.072 E606.97861
G1 X212.842 Y81.388 E616.75474
G1 X212.842 Y80.501 E616.83582
G1 X137.158 Y156.184 E626.61195
G1 X137.158 Y155.296 E626.69303
G1 X212.842 Y79.613 E636.46916
G1 X212.842 Y78.725 E636.55024
G1 X137.158 Y154.409 E646.32637
G1 X137.158 Y153.521 E646.40745
G1 X212.842 Y77.838 E656.18358
G1 X212.842 Y76.950 E656.26466
G1 X137.158 Y152.633 E666.04078
G1 X137.158 Y151.745 E666.12187
G1 X212.745 Y76.158 E675.88557
G1 X211.858 Y76.158 E675.96665
G1 X137.158 Y150.858 E685.61570
G1 X137.158 Y149.970 E685.69678
G1 X210.970 Y76.158 E695.23115
G1 X210.082 Y76.158 E695.31224
G1 X137.158 Y149.082 E704.73195
G1 X137.158 Y148.195 E704.81303
G1 X209.195 Y76.158 E714.11808
G1 X208.307 Y76.158 E714.19916
G1 X137.158 Y147.307 E723.38954
G1 X137.158 Y146.419 E723.47062
G1 X207.419 Y76.158 E732.54633
G1 X206.532 Y76.158 E732.62742
G1 X137.158 Y145.532 E741.58847
G1 X137.158 Y144.644 E741.66955
G1 X205.644 Y76.158 E750.51593
G1 X204.756 Y76.158 E750.59701
G1 X137.158 Y143.756 E759.32873
G1 X137.158 Y142.868 E759.40981
G1 X203.869 Y76.158 E768.02687
G1 X202.981 Y76.158 E768.10795
G1 X137.158 Y141.981 E776.61034
G1 X137.158 Y141.093 E776.69142
G1 X202.093 Y76.158 E785.07914
G1 X201.205 Y76.158 E785.16022
G1 X137.158 Y140.205 E793.43328
G1 X137.158 Y139.318 E793.51436
G1 X200.318 Y76.158 E801.67276
G1 X199.430 Y76.158 E801.75384
G1 X137.158 Y138.430 E809.79757
G1 X137.158 Y137.542 E809.87865
G1 X198.542 Y76.158 E817.80771
G1 X197.655 Y76.158 E817.88879
G1 X137.158 Y136.655 E825.70319
G1 X137.158 Y135.767 E825.78427
G1 X196.767 Y76.158 E833.48400
G1 X195.879 Y76.158 E833.56508
G1 X137.158 Y134.879 E841.15015
G1 X137.158 Y133.992 E841.23123
G1 X194.992 Y76.158 E848.70163
G1 X194.104 Y76.158 E848.78271
G1 X137.158 Y133.104 E856.13845
G1 X137.158 Y132.216 E856.21953
G1 X193.216 Y76.158 E863.46060
G1 X192.328 Y76.158 E863.54168
G1 X137.158 Y131.328 E870.66808
G1 X137.158 Y130.441 E870.74916
G1 X191.441 Y76.158 E877.76090
G1 X190.553 Y76.158 E877.84199
G1 X137.158 Y129.553 E884.73906
G1 X137.158 Y128.665 E884.82014
G1 X189.665 Y76.158 E891.60255
G1 X188.778 Y76.158 E891.68363
G1 X137.158 Y127.778 E898.35137
G1 X137.158 Y126.890 E898.43246
G1 X187.890 Y76.158 E904.98553
G1 X187.002 Y76.158 E905.06662
G1 X137.158 Y126.002 E911.50503
G1 X137.158 Y125.115 E911.58611
G1 X186.115 Y76.158 E917.90986
G1 X185.227 Y76.158 E917.99094
G1 X137.158 Y124.227 E924.20002
G1 X137.158 Y123.339 E924.28110
G1 X184.339 Y76.158 E930.37552
G1 X183.451 Y76.158 E930.45660
G1 X137.158 Y122.451 E936.43635
G1 X137.158 Y121.564 E936.51743
G1 X182.564 Y76.158 E942.38252
G1 X181.676 Y76.158 E942.46360
G1 X137.158 Y120.676 E948.21402
G1 X137.158 Y119.788 E948.29510
G1 X180.788 Y76.158 E953.93086
G1 X179.901 Y76.158 E954.01194
G1 X137.158 Y118.901 E959.53303
G1 X137.158 Y118.013 E959.61411
G1 X179.013 Y76.158 E965.02054
G1 X178.125 Y76.158 E965.10162
G1 X137.158 Y117.125 E970.39338
G1 X137.158 Y116.238 E970.47446
G1 X177.238 Y76.158 E975.65155
G1 X176.350 Y76.158 E975.73263
G1 X137.158 Y115.350 E980.79506
G1 X137.158 Y114.462 E980.87614
G1 X175.462 Y76.158 E985.82391
G1 X174.574 Y76.158 E985.90499
G1 X137.158 Y113.574 E990.73809
G1 X137.158 Y112.687 E990.81917
G1 X173.687 Y76.158 E995.53760
G1 X172.799 Y76.158 E995.61868
G1 X137.158 Y111.799 E1000.22245
G1 X137.158 Y110.911 E1000.30353
G1 X171.911 Y76.158 E1004.79264
G1 X171.024 Y76.158 E1004.87372
G1 X137.158 Y110.024 E1009.24815
G1 X137.158 Y109.136 E1009.32924
G1 X170.136 Y76.158 E1013.58901
G1 X169.248 Y76.158 E1013.67009
G1 X137.158 Y108.248 E1017.81520
G1 X137.158 Y107.361 E1017.89628
G1 X168.361 Y76.158 E1021.92672
G1 X167.473 Y76.158 E1022.00780
G1 X137.158 Y106.473 E1025.92357
G1 X137.158 Y105.585 E1026.00466
G1 X166.585 Y76.158 E1029.80577
G1 X165.698 Y76.158 E1029.88685
G1 X137.158 Y104.697 E1033.57329
G1 X137.158 Y103.810 E1033.65437
G1 X164.810 Y76.158 E1037.22615
G1 X163.922 Y76.158 E1037.30723
G1 X137.158 Y102.922 E1040.76435
G1 X137.158 Y102.034 E1040.84543
G1 X163.034 Y76.158 E1044.18788
G1 X162.147 Y76.158 E1044.26896
G1 X137.158 Y101.147 E1047.49674
G1 X137.158 Y100.259 E1047.57783
G1 X161.259 Y76.158 E1050.69094
G1 X160.371 Y76.158 E1050.77202
G1 X137.158 Y99.371 E1053.77048
G1 X137.158 Y98.484 E1053.85156
G1 X159.484 Y76.158 E1056.73535
G1 X158.596 Y76.158 E1056.81643
G1 X137.158 Y97.596 E1059.58555
G1 X137.158 Y96.708 E1059.66663
G1 X157.708 Y76.158 E1062.32109
G1 X156.821 Y76.158 E1062.40217
G1 X137.158 Y95.821 E1064.94196
G1 X137.158 Y94.933 E1065.02304
G1 X155.933 Y76.158 E1067.44817
G1 X155.045 Y76.158 E1067.52925
G1 X137.158 Y94.045 E1069.83971
G1 X137.158 Y93.157 E1069.92079
G1 X154.157 Y76.158 E1072.11659
G1 X153.270 Y76.158 E1072.19767
G1 X137.158 Y92.270 E1074.27880
G1 X137.158 Y91.382 E1074.35988
G1 X152.382 Y76.158 E1076.32635
G1 X151.494 Y76.158 E1076.40743
G1 X137.158 Y90.494 E1078.25923
G1 X137.158 Y89.607 E1078.34031
G1 X150.607 Y76.158 E1080.07744
G1 X149.719 Y76.158 E1080.15852
G1 X137.158 Y88.719 E1081.78099
G1 X137.158 Y87.831 E1081.86207
G1 X148.831 Y76.158 E1083.36988
G1 X147.944 Y76.158 E1083.45096
G1 X137.158 Y86.944 E1084.84410
G1 X137.158 Y86.056 E1084.92518
G1 X147.056 Y76.158 E1086.20365
G1 X146.168 Y76.158 E1086.28473
G1 X137.158 Y85.168 E1087.44854
G1 X137.158 Y84.280 E1087.52962
G1 X145.280 Y76.158 E1088.57876
G1 X144.393 Y76.158 E1088.65984
G1 X137.158 Y83.393 E1089.59432
G1 X137.158 Y82.505 E1089.67540
G1 X143.505 Y76.158 E1090.49521
G1 X142.617 Y76.158 E1090.57630
G1 X137.158 Y81.617 E1091.28144
G1 X137.158 Y80.730 E1091.36252
G1 X141.730 Y76.158 E1091.95300
G1 X140.842 Y76.158 E1092.03409
G1 X137.158 Y79.842 E1092.50990
G1 X137.158 Y78.954 E1092.59098
G1 X139.954 Y76.158 E1092.95213
G1 X139.067 Y76.158 E1093.03321
G1 X137.158 Y78.067 E1093.27970
G1 X137.158 Y77.179 E1093.36078
G1 X138.179 Y76.158 E1093.49260
G1 X137.291 Y76.158 E1093.57368
G1 X137.159 Y76.291 E1093.59080
M104 S210 ; set temperature
M140 S65 ; set bed temperature
G1 Z0.650 F7800.000
G1 X213.964 Y174.964 F7800.000
G1 F3600
G1 X136.036 Y174.964 E1097.66213
G1 X136.036 Y75.036 E1102.88285
G1 X213.964 Y75.036 E1106.95417
G1 X213.964 Y174.904 E1112.17175
G1 X214.383 Y175.383 F7800.000
G1 F3600
G1 X135.617 Y175.383 E1116.28685
G1 X135.617 Y74.617 E1121.55133
G1 X214.383 Y74.617 E1125.66643
G1 X214.383 Y175.323 E1130.92778
G1 X214.780 Y175.780 F7800.000
G1 F1800
G1 X135.220 Y175.780 E1134.65511
G1 X135.220 Y74.220 E1139.41313
G1 X214.780 Y74.220 E1143.14046
G1 X214.780 Y175.720 E1147.89567
G1 X214.398 Y175.661 F7800.000
G1 X136.499 Y174.589 F7800.000
G1 F1200
G1 X136.411 Y174.500 E1147.90224
G1 X136.411 Y173.907 E1147.93328
G1 X137.093 Y174.589 E1147.98376
G1 X137.686 Y174.589 E1148.01479
G1 X136.411 Y173.314 E1148.10916
G1 X136.411 Y172.721 E1148.14020
G1 X138.279 Y174.589 E1148.27846
G1 X138.872 Y174.589 E1148.30949
G1 X136.411 Y172.128 E1148.49164
G1 X136.411 Y171.534 E1148.52267
G1 X139.466 Y174.589 E1148.74871
G1 X140.059 Y174.589 E1148.77974
G1 X136.411 Y170.941 E1149.04967
G1 X136.411 Y170.348 E1149.08070
G1 X140.652 Y174.589 E1149.39452
G1 X141.245 Y174.589 E1149.42555
G1 X136.411 Y169.755 E1149.78326
G1 X136.411 Y169.162 E1149.81429
G1 X141.838 Y174.589 E1150.21588
G1 X142.432 Y174.589 E1150.24692
G1 X136.411 Y168.568 E1150.69240
G1 X136.411 Y167.975 E1150.72343
G1 X143.025 Y174.589 E1151.21280
G1 X143.618 Y174.589 E1151.24383
