; generated by Slic3r 1.3.0 on 2020-03-29 at 15:21:56

; external perimeters extrusion width = 0.44mm (3.38mm^3/s)
; perimeters extrusion width = 0.48mm (7.54mm^3/s)
; infill extrusion width = 0.48mm (10.05mm^3/s)
; solid infill extrusion width = 0.48mm (2.51mm^3/s)
; top infill extrusion width = 0.48mm (1.88mm^3/s)

M107
M190 S70 ; set bed temperature and wait for it to be reached
M104 S215 ; set temperature
G28 ; home all axes
G1 Z5 F5000 ; lift nozzle

; Filament gcode

M109 S215 ; set temperature and wait for it to be reached
G21 ; set units to millimeters
G90 ; use absolute coordinates
M82 ; use absolute distances for extrusion
G92 E0
G1 Z0.350 F7800.000
G1 E-2.00000 F2400.00000
G92 E0
G1 X128.772 Y71.741 F7800.000
G1 E2.00000 F2400.00000
G1 F1800
G1 X129.915 Y69.753 E2.20854
G1 X131.668 Y68.274 E2.41708
G1 X133.820 Y67.481 E2.62563
G1 X135.000 Y67.375 E2.73334
G1 X215.000 Y67.375 E10.00770
G1 X217.259 Y67.772 E10.21624
G1 X219.247 Y68.915 E10.42479
G1 X220.726 Y70.668 E10.63333
G1 X221.519 Y72.820 E10.84187
G1 X221.625 Y74.000 E10.94958
G1 X221.625 Y176.000 E20.22440
G1 X221.228 Y178.259 E20.43294
G1 X220.085 Y180.247 E20.64148
G1 X218.332 Y181.726 E20.85003
G1 X216.180 Y182.519 E21.05857
G1 X215.000 Y182.625 E21.16628
G1 X135.000 Y182.625 E28.44064
G1 X132.741 Y182.228 E28.64919
G1 X130.753 Y181.085 E28.85773
G1 X129.274 Y179.332 E29.06627
G1 X128.481 Y177.180 E29.27481
G1 X128.375 Y176.000 E29.38252
G1 X128.375 Y74.000 E38.65734
G1 X128.762 Y71.800 E38.86042
G1 E36.86042 F2400.00000
G92 E0
G1 X192.622 Y154.000 F7800.000
G1 E2.00000 F2400.00000
G1 F1800
G1 X192.053 Y157.591 E2.33063
G1 X190.402 Y160.831 E2.66127
G1 X187.831 Y163.402 E2.99191
G1 X184.592 Y165.053 E3.32252
G1 X181.000 Y165.623 E3.65319
G1 X177.408 Y165.053 E3.98386
G1 X174.169 Y163.402 E4.31447
G1 X171.598 Y160.831 E4.64511
G1 X169.947 Y157.592 E4.97572
G1 X169.377 Y154.000 E5.30639
G1 X169.947 Y150.408 E5.63706
G1 X171.598 Y147.169 E5.96767
G1 X174.169 Y144.598 E6.29831
G1 X177.409 Y142.947 E6.62895
G1 X181.000 Y142.378 E6.95958
G1 X184.591 Y142.947 E7.29022
G1 X187.831 Y144.598 E7.62085
G1 X190.402 Y147.169 E7.95149
G1 X192.053 Y150.409 E8.28212
G1 X192.612 Y153.941 E8.60730
G1 X191.989 Y154.000 F7800.000
G1 F1800
G1 X191.452 Y157.396 E8.91994
G1 X189.890 Y160.459 E9.23257
G1 X187.459 Y162.890 E9.54521
G1 X184.396 Y164.452 E9.85783
G1 X181.000 Y164.990 E10.17049
G1 X177.604 Y164.452 E10.48316
G1 X174.541 Y162.890 E10.79577
G1 X172.110 Y160.459 E11.10842
G1 X170.548 Y157.396 E11.42104
G1 X170.010 Y154.000 E11.73370
G1 X170.548 Y150.604 E12.04637
G1 X172.110 Y147.541 E12.35898
G1 X174.541 Y145.110 E12.67163
G1 X177.604 Y143.548 E12.98426
G1 X181.000 Y143.011 E13.29689
G1 X184.396 Y143.548 E13.60953
G1 X187.459 Y145.110 E13.92216
G1 X189.890 Y147.541 E14.23481
G1 X191.452 Y150.604 E14.54744
G1 X191.980 Y153.941 E14.85462
G1 X191.356 Y154.000 F7800.000
G1 F1800
G1 X190.850 Y157.200 E15.14926
G1 X189.379 Y160.087 E15.44388
G1 X187.087 Y162.379 E15.73854
G1 X184.201 Y163.850 E16.03316
G1 X181.000 Y164.357 E16.32782
G1 X177.799 Y163.850 E16.62248
G1 X174.913 Y162.379 E16.91710
G1 X172.621 Y160.087 E17.21175
G1 X171.150 Y157.201 E17.50637
G1 X170.643 Y154.000 E17.80103
G1 X171.150 Y150.799 E18.09569
G1 X172.621 Y147.913 E18.39031
G1 X174.913 Y145.621 E18.68496
G1 X177.799 Y144.150 E18.97959
G1 X181.000 Y143.644 E19.27423
G1 X184.200 Y144.150 E19.56887
G1 X187.087 Y145.621 E19.86349
G1 X189.379 Y147.913 E20.15815
G1 X190.850 Y150.800 E20.45277
G1 X191.347 Y153.941 E20.74196
G1 X191.356 Y154.000 F7800.000
G1 E18.74196 F2400.00000
G92 E0
G1 X213.400 Y174.400 F7800.000
G1 E2.00000 F2400.00000
G1 F1800
G1 X136.600 Y174.400 E8.98343
G1 X136.600 Y75.600 E17.96732
G1 X213.400 Y75.600 E24.95075
G1 X213.400 Y174.340 E33.92917
G1 X214.025 Y175.025 F7800.000
G1 F1800
G1 X135.975 Y175.025 E41.02625
G1 X135.975 Y74.975 E50.12377
G1 X214.025 Y74.975 E57.22085
G1 X214.025 Y174.965 E66.31292
G1 X214.650 Y175.650 F7800.000
G1 F1800
G1 X135.350 Y175.650 E73.52363
G1 X135.350 Y74.350 E82.73480
G1 X214.650 Y74.350 E89.94551
G1 X214.650 Y175.590 E99.15122
G1 X214.268 Y175.531 F7800.000
G1 E97.15122 F2400.00000
G92 E0
G1 X212.709 Y173.842 F7800.000
G1 E2.00000 F2400.00000
G1 F1800
G1 X212.842 Y173.709 E2.01714
G1 X212.842 Y172.821 E2.09822
G1 X211.821 Y173.842 E2.23003
G1 X210.934 Y173.842 E2.31111
G1 X212.842 Y171.934 E2.55758
G1 X212.842 Y171.046 E2.63866
G1 X210.046 Y173.842 E2.99980
G1 X209.158 Y173.842 E3.08088
G1 X212.842 Y170.158 E3.55668
G1 X212.842 Y169.270 E3.63776
G1 X208.270 Y173.842 E4.22823
G1 X207.383 Y173.842 E4.30931
G1 X212.842 Y168.383 E5.01444
G1 X212.842 Y167.495 E5.09552
G1 X206.495 Y173.842 E5.91532
G1 X205.607 Y173.842 E5.99640
G1 X212.842 Y166.607 E6.93087
G1 X212.842 Y165.720 E7.01195
G1 X204.720 Y173.842 E8.06108
G1 X203.832 Y173.842 E8.14216
G1 X212.842 Y164.832 E9.30595
G1 X212.842 Y163.944 E9.38703
G1 X202.944 Y173.842 E10.66549
G1 X202.057 Y173.842 E10.74657
G1 X212.842 Y163.057 E12.13970
G1 X212.842 Y162.169 E12.22078
G1 X201.169 Y173.842 E13.72857
G1 X200.281 Y173.842 E13.80965
G1 X212.842 Y161.281 E15.43211
G1 X212.842 Y160.393 E15.51319
G1 X199.393 Y173.842 E17.25031
G1 X198.506 Y173.842 E17.33139
G1 X212.842 Y159.506 E19.18318
G1 X212.842 Y158.618 E19.26426
G1 X197.618 Y173.842 E21.23071
G1 X196.730 Y173.842 E21.31179
G1 X212.842 Y157.730 E23.39291
G1 X212.842 Y156.843 E23.47399
G1 X195.843 Y173.842 E25.66977
G1 X194.955 Y173.842 E25.75085
G1 X212.842 Y155.955 E28.06130
G1 X212.842 Y155.067 E28.14238
G1 X194.067 Y173.842 E30.56749
G1 X193.180 Y173.842 E30.64857
G1 X212.842 Y154.180 E33.18835
G1 X212.842 Y153.292 E33.26943
G1 X192.292 Y173.842 E35.92388
G1 X191.404 Y173.842 E36.00496
G1 X212.842 Y152.404 E38.77407
G1 X212.842 Y151.516 E38.85515
G1 X190.516 Y173.842 E41.73892
G1 X189.629 Y173.842 E41.82000
G1 X212.842 Y150.629 E44.81844
G1 X212.842 Y149.741 E44.89952
G1 X188.741 Y173.842 E48.01263
G1 X187.853 Y173.842 E48.09371
G1 X212.842 Y148.853 E51.32148
G1 X212.842 Y147.966 E51.40256
G1 X186.966 Y173.842 E54.74499
G1 X186.078 Y173.842 E54.82607
G1 X212.842 Y147.078 E58.28317
G1 X212.842 Y146.190 E58.36426
G1 X185.190 Y173.842 E61.93602
G1 X184.303 Y173.842 E62.01710
G1 X212.842 Y145.303 E65.70353
G1 X212.842 Y144.415 E65.78461
G1 X183.415 Y173.842 E69.58571
G1 X182.527 Y173.842 E69.66679
G1 X212.842 Y143.527 E73.58255
G1 X212.842 Y142.640 E73.66363
G1 X181.640 Y173.842 E77.69406
G1 X180.752 Y173.842 E77.77514
G1 X212.842 Y141.752 E81.92024
G1 X212.842 Y140.864 E82.00132
G1 X179.864 Y173.842 E86.26107
G1 X178.976 Y173.842 E86.34216
G1 X212.842 Y139.976 E90.71658
G1 X212.842 Y139.089 E90.79766
G1 X191.042 Y160.888 E93.61356
G1 X191.965 Y159.078 E93.79916
G1 X212.842 Y138.201 E96.49587
G1 X212.842 Y137.313 E96.57695
G1 X192.643 Y157.512 E99.18605
G1 X192.810 Y156.458 E99.28357
G1 X212.842 Y136.426 E101.87112
G1 X212.842 Y135.538 E101.95220
G1 X192.977 Y155.403 E104.51820
G1 X193.143 Y154.348 E104.61572
G1 X212.842 Y134.650 E107.16018
G1 X212.842 Y133.763 E107.24126
G1 X193.099 Y153.505 E109.79141
G1 X192.978 Y152.739 E109.86229
G1 X212.842 Y132.875 E112.42811
G1 X212.842 Y131.987 E112.50919
G1 X192.857 Y151.972 E115.09067
G1 X192.735 Y151.206 E115.16155
G1 X212.842 Y131.099 E117.75870
G1 X212.842 Y130.212 E117.83978
G1 X192.614 Y150.439 E120.45258
G1 X192.589 Y150.279 E120.46737
G1 X192.352 Y149.814 E120.51508
G1 X212.842 Y129.324 E123.16179
G1 X212.842 Y128.436 E123.24287
G1 X192.052 Y149.226 E125.92829
G1 X191.752 Y148.638 E125.98857
G1 X212.842 Y127.549 E128.71271
G1 X212.842 Y126.661 E128.79379
G1 X191.453 Y148.050 E131.55664
G1 X191.153 Y147.462 E131.61692
G1 X212.842 Y125.773 E134.41848
G1 X212.842 Y124.886 E134.49956
G1 X190.853 Y146.874 E137.33983
G1 X190.412 Y146.427 E137.39717
G1 X212.842 Y123.998 E140.29443
G1 X212.842 Y123.110 E140.37551
G1 X189.968 Y145.984 E143.33011
G1 X189.524 Y145.540 E143.38745
G1 X212.842 Y122.222 E146.39938
G1 X212.842 Y121.335 E146.48046
G1 X189.080 Y145.096 E149.54973
G1 X188.637 Y144.652 E149.60706
G1 X212.842 Y120.447 E152.73366
G1 X212.842 Y119.559 E152.81474
G1 X188.193 Y144.208 E155.99867
G1 X188.137 Y144.152 E156.00591
G1 X187.623 Y143.890 E156.05858
G1 X212.842 Y118.672 E159.31611
G1 X212.842 Y117.784 E159.39719
G1 X187.035 Y143.591 E162.73068
G1 X186.447 Y143.291 E162.79096
G1 X212.842 Y116.896 E166.20040
G1 X212.842 Y116.009 E166.28148
G1 X185.859 Y142.991 E169.76687
G1 X185.271 Y142.692 E169.82715
G1 X212.842 Y115.121 E173.38849
G1 X212.842 Y114.233 E173.46957
G1 X184.672 Y142.403 E177.10835
G1 X183.905 Y142.282 E177.17923
G1 X212.842 Y113.346 E180.91701
G1 X212.842 Y112.458 E180.99809
G1 X183.139 Y142.161 E184.83487
G1 X182.372 Y142.040 E184.90574
G1 X212.842 Y111.570 E188.84153
G1 X212.842 Y110.682 E188.92261
G1 X181.606 Y141.918 E192.95740
G1 X180.934 Y141.812 E193.01955
G1 X180.804 Y141.833 E193.03156
G1 X212.842 Y109.795 E197.16993
G1 X212.842 Y108.907 E197.25101
G1 X179.749 Y141.999 E201.52560
G1 X178.695 Y142.166 E201.62311
G1 X212.842 Y108.019 E206.03392
G1 X212.842 Y107.132 E206.11500
G1 X177.640 Y142.333 E210.66202
G1 X177.147 Y142.411 E210.70766
G1 X176.184 Y142.902 E210.80640
G1 X212.842 Y106.244 E215.54158
G1 X212.842 Y105.356 E215.62266
G1 X174.373 Y143.825 E220.59170
G1 X173.731 Y144.152 E220.65756
G1 X171.020 Y146.863 E221.00775
G1 X170.692 Y147.506 E221.07361
G1 X144.356 Y173.842 E224.47547
G1 X143.469 Y173.842 E224.55655
G1 X212.842 Y104.469 E233.51759
G1 X212.842 Y103.581 E233.59867
G1 X142.581 Y173.842 E242.67437
G1 X141.693 Y173.842 E242.75545
G1 X212.842 Y102.693 E251.94582
G1 X212.842 Y101.805 E252.02690
G1 X140.805 Y173.842 E261.33193
G1 X139.918 Y173.842 E261.41301
G1 X212.842 Y100.918 E270.83271
G1 X212.842 Y100.030 E270.91379
G1 X139.030 Y173.842 E280.44816
G1 X138.142 Y173.842 E280.52924
G1 X212.842 Y99.142 E290.17827
G1 X212.842 Y98.255 E290.25935
G1 X137.255 Y173.842 E300.02304
G1 X137.158 Y173.842 E300.03183
G1 X137.158 Y173.050 E300.10412
G1 X212.842 Y97.367 E309.88025
G1 X212.842 Y96.479 E309.96133
G1 X137.158 Y172.162 E319.73746
G1 X137.158 Y171.275 E319.81854
G1 X212.842 Y95.592 E329.59467
G1 X212.842 Y94.704 E329.67575
G1 X137.158 Y170.387 E339.45188
G1 X137.158 Y169.499 E339.53296
G1 X212.842 Y93.816 E349.30909
G1 X212.842 Y92.928 E349.39017
G1 X137.158 Y168.612 E359.16629
G1 X137.158 Y167.724 E359.24738
G1 X212.842 Y92.041 E369.02350
G1 X212.842 Y91.153 E369.10458
G1 X137.158 Y166.836 E378.88071
G1 X137.158 Y165.949 E378.96179
G1 X212.842 Y90.265 E388.73792
G1 X212.842 Y89.378 E388.81900
G1 X137.158 Y165.061 E398.59513
G1 X137.158 Y164.173 E398.67621
G1 X212.842 Y88.490 E408.45234
G1 X212.842 Y87.602 E408.53342
G1 X137.158 Y163.286 E418.30955
G1 X137.158 Y162.398 E418.39063
G1 X212.842 Y86.715 E428.16676
G1 X212.842 Y85.827 E428.24784
G1 X137.158 Y161.510 E438.02397
G1 X137.158 Y160.622 E438.10505
G1 X212.842 Y84.939 E447.88117
G1 X212.842 Y84.051 E447.96225
G1 X137.158 Y159.735 E457.73838
G1 X137.158 Y158.847 E457.81946
G1 X212.842 Y83.164 E467.59559
G1 X212.842 Y82.276 E467.67667
G1 X137.158 Y157.959 E477.45280
G1 X137.158 Y157.072 E477.53388
G1 X212.842 Y81.388 E487.31001
G1 X212.842 Y80.501 E487.39109
G1 X137.158 Y156.184 E497.16722
G1 X137.158 Y155.296 E497.24830
G1 X212.842 Y79.613 E507.02443
G1 X212.842 Y78.725 E507.10551
G1 X137.158 Y154.409 E516.88164
G1 X137.158 Y153.521 E516.96272
G1 X212.842 Y77.838 E526.73884
G1 X212.842 Y76.950 E526.81993
G1 X137.158 Y152.633 E536.59605
G1 X137.158 Y151.745 E536.67713
G1 X212.745 Y76.158 E546.44084
G1 X211.858 Y76.158 E546.52192
G1 X137.158 Y150.858 E556.17097
G1 X137.158 Y149.970 E556.25205
G1 X210.970 Y76.158 E565.78642
G1 X210.082 Y76.158 E565.86750
G1 X137.158 Y149.082 E575.28722
G1 X137.158 Y148.195 E575.36830
G1 X209.195 Y76.158 E584.67334
G1 X208.307 Y76.158 E584.75442
G1 X137.158 Y147.307 E593.94481
G1 X137.158 Y146.419 E594.02589
G1 X207.419 Y76.158 E603.10160
G1 X206.532 Y76.158 E603.18268
G1 X137.158 Y145.532 E612.14373
G1 X137.158 Y144.644 E612.22482
G1 X205.644 Y76.158 E621.07120
G1 X204.756 Y76.158 E621.15228
G1 X137.158 Y143.756 E629.88400
G1 X137.158 Y142.868 E629.96508
G1 X203.869 Y76.158 E638.58214
G1 X202.981 Y76.158 E638.66322
G1 X137.158 Y141.981 E647.16561
G1 X137.158 Y141.093 E647.24669
G1 X202.093 Y76.158 E655.63441
G1 X201.205 Y76.158 E655.71549
G1 X137.158 Y140.205 E663.98855
G1 X137.158 Y139.318 E664.06963
G1 X200.318 Y76.158 E672.22803
G1 X199.430 Y76.158 E672.30911
G1 X137.158 Y138.430 E680.35283
G1 X137.158 Y137.542 E680.43392
G1 X198.542 Y76.158 E688.36298
G1 X197.655 Y76.158 E688.44406
G1 X137.158 Y136.655 E696.25846
G1 X137.158 Y135.767 E696.33954
G1 X196.767 Y76.158 E704.03927
G1 X195.879 Y76.158 E704.12035
G1 X137.158 Y134.879 E711.70542
G1 X137.158 Y133.992 E711.78650
G1 X194.992 Y76.158 E719.25690
G1 X194.104 Y76.158 E719.33798
G1 X137.158 Y133.104 E726.69372
G1 X137.158 Y132.216 E726.77480
G1 X193.216 Y76.158 E734.01587
G1 X192.328 Y76.158 E734.09695
G1 X137.158 Y131.328 E741.22335
G1 X137.158 Y130.441 E741.30443
G1 X191.441 Y76.158 E748.31617
G1 X190.553 Y76.158 E748.39725
G1 X137.158 Y129.553 E755.29433
G1 X137.158 Y128.665 E755.37541
G1 X189.665 Y76.158 E762.15782
G1 X188.778 Y76.158 E762.23890
G1 X137.158 Y127.778 E768.90664
G1 X137.158 Y126.890 E768.98772
G1 X187.890 Y76.158 E775.54080
G1 X187.002 Y76.158 E775.62188
G1 X137.158 Y126.002 E782.06030
G1 X137.158 Y125.115 E782.14138
G1 X186.115 Y76.158 E788.46513
G1 X185.227 Y76.158 E788.54621
G1 X137.158 Y124.227 E794.75529
G1 X137.158 Y123.339 E794.83637
G1 X184.339 Y76.158 E800.93079
G1 X183.451 Y76.158 E801.01187
G1 X137.158 Y122.451 E806.99162
G1 X137.158 Y121.564 E807.07270
G1 X182.564 Y76.158 E812.93779
G1 X181.676 Y76.158 E813.01887
G1 X137.158 Y120.676 E818.76929
G1 X137.158 Y119.788 E818.85037
G1 X180.788 Y76.158 E824.48613
G1 X179.901 Y76.158 E824.56721
G1 X137.158 Y118.901 E830.08830
G1 X137.158 Y118.013 E830.16938
G1 X179.013 Y76.158 E835.57581
G1 X178.125 Y76.158 E835.65689
G1 X137.158 Y117.125 E840.94865
G1 X137.158 Y116.238 E841.02973
G1 X177.238 Y76.158 E846.20682
G1 X176.350 Y76.158 E846.28790
G1 X137.158 Y115.350 E851.35033
G1 X137.158 Y114.462 E851.43141
G1 X175.462 Y76.158 E856.37918
G1 X174.574 Y76.158 E856.46026
G1 X137.158 Y113.574 E861.29336
G1 X137.158 Y112.687 E861.37444
G1 X173.687 Y76.158 E866.09287
G1 X172.799 Y76.158 E866.17395
G1 X137.158 Y111.799 E870.77772
G1 X137.158 Y110.911 E870.85880
G1 X171.911 Y76.158 E875.34790
G1 X171.024 Y76.158 E875.42899
G1 X137.158 Y110.024 E879.80342
G1 X137.158 Y109.136 E879.88450
G1 X170.136 Y76.158 E884.14428
G1 X169.248 Y76.158 E884.22536
G1 X137.158 Y108.248 E888.37046
G1 X137.158 Y107.361 E888.45154
G1 X168.361 Y76.158 E892.48199
G1 X167.473 Y76.158 E892.56307
G1 X137.158 Y106.473 E896.47884
G1 X137.158 Y105.585 E896.55992
G1 X166.585 Y76.158 E900.36104
G1 X165.698 Y76.158 E900.44212
G1 X137.158 Y104.697 E904.12856
G1 X137.158 Y103.810 E904.20964
G1 X164.810 Y76.158 E907.78142
G1 X163.922 Y76.158 E907.86250
G1 X137.158 Y102.922 E911.31962
G1 X137.158 Y102.034 E911.40070
G1 X163.034 Y76.158 E914.74315
G1 X162.147 Y76.158 E914.82423
G1 X137.158 Y101.147 E918.05201
G1 X137.158 Y100.259 E918.13309
G1 X161.259 Y76.158 E921.24621
G1 X160.371 Y76.158 E921.32729
G1 X137.158 Y99.371 E924.32575
G1 X137.158 Y98.484 E924.40683
G1 X159.484 Y76.158 E927.29062
G1 X158.596 Y76.158 E927.37170
G1 X137.158 Y97.596 E930.14082
G1 X137.158 Y96.708 E930.22190
G1 X157.708 Y76.158 E932.87636
G1 X156.821 Y76.158 E932.95744
G1 X137.158 Y95.821 E935.49723
G1 X137.158 Y94.933 E935.57831
G1 X155.933 Y76.158 E938.00344
G1 X155.045 Y76.158 E938.08452
G1 X137.158 Y94.045 E940.39498
G1 X137.158 Y93.157 E940.47606
G1 X154.157 Y76.158 E942.67186
G1 X153.270 Y76.158 E942.75294
G1 X137.158 Y92.270 E944.83407
G1 X137.158 Y91.382 E944.91515
G1 X152.382 Y76.158 E946.88161
G1 X151.494 Y76.158 E946.96270
G1 X137.158 Y90.494 E948.81450
G1 X137.158 Y89.607 E948.89558
G1 X150.607 Y76.158 E950.63271
G1 X149.719 Y76.158 E950.71379
G1 X137.158 Y88.719 E952.33626
G1 X137.158 Y87.831 E952.41734
G1 X148.831 Y76.158 E953.92515
G1 X147.944 Y76.158 E954.00623
