; generated by Slic3r 1.3.0 on 2020-03-29 at 19:43:52

; external perimeters extrusion width = 0.44mm (3.38mm^3/s)
; perimeters extrusion width = 0.48mm (7.54mm^3/s)
; infill extrusion width = 0.48mm (10.05mm^3/s)
; solid infill extrusion width = 0.48mm (2.51mm^3/s)
; top infill extrusion width = 0.48mm (1.88mm^3/s)

M107
M190 S70 ; set bed temperature and wait for it to be reached
M104 S215 ; set temperature
G28 ; home all axes
G1 Z5 F5000 ; lift nozzle

; Filament gcode

M109 S215 ; set temperature and wait for it to be reached
G21 ; set units to millimeters
G90 ; use absolute coordinates
M82 ; use absolute distances for extrusion
G92 E0
G1 Z0.350 F7800.000
G1 E-2.00000 F2400.00000
G92 E0
G1 X124.772 Y67.741 F7800.000
G1 E2.00000 F2400.00000
G1 F1800
G1 X125.915 Y65.753 E2.20854
G1 X127.668 Y64.274 E2.41708
G1 X129.820 Y63.481 E2.62563
G1 X131.000 Y63.375 E2.73334
G1 X219.000 Y63.375 E10.73514
G1 X221.259 Y63.772 E10.94368
G1 X223.247 Y64.915 E11.15222
G1 X224.726 Y66.668 E11.36077
G1 X225.519 Y68.820 E11.56931
G1 X225.625 Y70.000 E11.67702
G1 X225.625 Y180.000 E21.67927
G1 X225.228 Y182.259 E21.88781
G1 X224.085 Y184.247 E22.09636
G1 X222.332 Y185.726 E22.30490
G1 X220.180 Y186.519 E22.51344
G1 X219.000 Y186.625 E22.62115
G1 X131.000 Y186.625 E30.62295
G1 X128.741 Y186.228 E30.83149
G1 X126.753 Y185.085 E31.04004
G1 X125.274 Y183.332 E31.24858
G1 X124.481 Y181.180 E31.45712
G1 X124.375 Y180.000 E31.56483
G1 X124.375 Y70.000 E41.56708
G1 X124.762 Y67.800 E41.77017
G1 E39.77017 F2400.00000
G92 E0
G1 X166.105 Y109.369 F7800.000
G1 E2.00000 F2400.00000
G1 F1800
G1 X165.721 Y110.442 E2.10362
G1 X165.234 Y111.470 E2.20709
G1 X164.649 Y112.446 E2.31057
G1 X163.970 Y113.362 E2.41422
G1 X163.206 Y114.206 E2.51774
G1 X162.362 Y114.970 E2.62126
G1 X161.446 Y115.649 E2.72491
G1 X160.470 Y116.234 E2.82839
G1 X159.442 Y116.721 E2.93186
G1 X158.369 Y117.105 E3.03548
G1 X157.263 Y117.381 E3.13912
G1 X156.137 Y117.548 E3.24263
G1 X155.000 Y117.604 E3.34613
G1 X153.863 Y117.548 E3.44962
G1 X152.737 Y117.381 E3.55313
G1 X151.631 Y117.105 E3.65677
G1 X150.558 Y116.721 E3.76040
G1 X149.530 Y116.234 E3.86386
G1 X148.554 Y115.649 E3.96734
G1 X147.638 Y114.970 E4.07099
G1 X146.794 Y114.206 E4.17451
G1 X146.030 Y113.362 E4.27803
G1 X145.351 Y112.446 E4.38169
G1 X144.766 Y111.470 E4.48517
G1 X144.279 Y110.442 E4.58863
G1 X143.895 Y109.369 E4.69225
G1 X143.619 Y108.263 E4.79589
G1 X143.452 Y107.138 E4.89933
G1 X143.395 Y106.000 E5.00291
G1 X143.452 Y104.864 E5.10633
G1 X143.614 Y103.759 E5.20787
G1 X143.895 Y102.631 E5.31357
G1 X144.279 Y101.558 E5.41719
G1 X144.766 Y100.530 E5.52065
G1 X145.351 Y99.554 E5.62413
G1 X146.030 Y98.638 E5.72779
G1 X146.794 Y97.794 E5.83131
G1 X147.638 Y97.030 E5.93483
G1 X148.554 Y96.351 E6.03848
G1 X149.530 Y95.766 E6.14196
G1 X150.558 Y95.279 E6.24542
G1 X151.631 Y94.895 E6.34905
G1 X152.737 Y94.619 E6.45269
G1 X153.862 Y94.452 E6.55612
G1 X154.954 Y94.398 E6.65549
G1 X156.134 Y94.452 E6.76295
G1 X157.263 Y94.619 E6.86669
G1 X158.369 Y94.895 E6.97033
G1 X159.442 Y95.279 E7.07395
G1 X160.470 Y95.766 E7.17742
G1 X161.446 Y96.351 E7.28090
G1 X162.362 Y97.030 E7.38455
G1 X163.206 Y97.794 E7.48807
G1 X163.970 Y98.638 E7.59159
G1 X164.649 Y99.554 E7.69524
G1 X165.234 Y100.530 E7.79873
G1 X165.721 Y101.558 E7.90219
G1 X166.105 Y102.631 E8.00581
G1 X166.381 Y103.737 E8.10945
G1 X166.548 Y104.863 E8.21296
G1 X166.604 Y106.000 E8.31646
G1 X166.548 Y107.137 E8.41996
G1 X166.381 Y108.263 E8.52347
G1 X166.119 Y109.310 E8.62165
G1 X165.506 Y109.187 F7800.000
G1 F1800
G1 X165.143 Y110.202 E8.71966
G1 X164.682 Y111.175 E8.81756
G1 X164.129 Y112.099 E8.91548
G1 X163.487 Y112.965 E9.01353
G1 X162.763 Y113.763 E9.11147
G1 X161.965 Y114.487 E9.20940
G1 X161.099 Y115.129 E9.30745
G1 X160.175 Y115.682 E9.40537
G1 X159.202 Y116.143 E9.50327
G1 X158.187 Y116.506 E9.60128
G1 X157.141 Y116.767 E9.69933
G1 X156.076 Y116.925 E9.79727
G1 X155.000 Y116.978 E9.89519
G1 X153.924 Y116.925 E9.99311
G1 X152.859 Y116.767 E10.09105
G1 X151.813 Y116.506 E10.18910
G1 X150.798 Y116.143 E10.28711
G1 X149.825 Y115.682 E10.38501
G1 X148.901 Y115.129 E10.48293
G1 X148.035 Y114.487 E10.58098
G1 X147.237 Y113.763 E10.67891
G1 X146.513 Y112.965 E10.77685
G1 X145.871 Y112.099 E10.87490
G1 X145.318 Y111.175 E10.97282
G1 X144.857 Y110.202 E11.07072
G1 X144.494 Y109.187 E11.16873
G1 X144.233 Y108.141 E11.26677
G1 X144.075 Y107.076 E11.36467
G1 X144.021 Y106.000 E11.46264
G1 X144.075 Y104.925 E11.56052
G1 X144.227 Y103.880 E11.65652
G1 X144.494 Y102.813 E11.75656
G1 X144.857 Y101.798 E11.85457
G1 X145.318 Y100.825 E11.95248
G1 X145.871 Y99.901 E12.05039
G1 X146.513 Y99.035 E12.14844
G1 X147.237 Y98.237 E12.24638
G1 X148.035 Y97.513 E12.34432
G1 X148.901 Y96.871 E12.44237
G1 X149.825 Y96.318 E12.54028
G1 X150.798 Y95.857 E12.63819
G1 X151.813 Y95.494 E12.73620
G1 X152.859 Y95.233 E12.83424
G1 X153.924 Y95.075 E12.93214
G1 X154.955 Y95.023 E13.02602
G1 X156.074 Y95.074 E13.12787
G1 X157.141 Y95.233 E13.22596
G1 X158.187 Y95.494 E13.32400
G1 X159.202 Y95.857 E13.42201
G1 X160.175 Y96.318 E13.51992
G1 X161.099 Y96.871 E13.61783
G1 X161.965 Y97.513 E13.71588
G1 X162.763 Y98.237 E13.81382
G1 X163.487 Y99.035 E13.91175
G1 X164.129 Y99.901 E14.00981
G1 X164.682 Y100.825 E14.10772
G1 X165.143 Y101.798 E14.20563
G1 X165.506 Y102.813 E14.30363
G1 X165.767 Y103.859 E14.40168
G1 X165.925 Y104.924 E14.49962
G1 X165.978 Y106.000 E14.59754
G1 X165.925 Y107.076 E14.69546
G1 X165.767 Y108.141 E14.79341
G1 X165.521 Y109.129 E14.88599
G1 X164.907 Y109.006 F7800.000
G1 F1800
G1 X164.565 Y109.962 E14.97839
G1 X164.130 Y110.880 E15.07074
G1 X163.608 Y111.752 E15.16309
G1 X163.003 Y112.568 E15.25554
G1 X162.321 Y113.321 E15.34789
G1 X161.568 Y114.003 E15.44024
G1 X160.752 Y114.608 E15.53269
G1 X159.880 Y115.130 E15.62504
G1 X158.962 Y115.565 E15.71739
G1 X158.006 Y115.907 E15.80978
G1 X157.019 Y116.154 E15.90223
G1 X156.014 Y116.303 E15.99461
G1 X155.000 Y116.352 E16.08695
G1 X153.986 Y116.303 E16.17929
G1 X152.981 Y116.154 E16.27167
G1 X151.994 Y115.907 E16.36412
G1 X151.038 Y115.565 E16.45651
G1 X150.120 Y115.130 E16.54886
G1 X149.248 Y114.608 E16.64121
G1 X148.432 Y114.003 E16.73366
G1 X147.679 Y113.321 E16.82601
G1 X146.997 Y112.568 E16.91836
G1 X146.392 Y111.752 E17.01081
G1 X145.870 Y110.880 E17.10316
G1 X145.435 Y109.962 E17.19551
G1 X145.093 Y109.006 E17.28790
G1 X144.846 Y108.019 E17.38035
G1 X144.697 Y107.014 E17.47271
G1 X144.647 Y106.000 E17.56508
G1 X144.697 Y104.986 E17.65740
G1 X144.841 Y104.001 E17.74787
G1 X145.093 Y102.994 E17.84226
G1 X145.435 Y102.038 E17.93465
G1 X145.870 Y101.120 E18.02700
G1 X146.392 Y100.248 E18.11935
G1 X146.997 Y99.432 E18.21180
G1 X147.679 Y98.679 E18.30415
G1 X148.432 Y97.997 E18.39650
G1 X149.248 Y97.392 E18.48895
G1 X150.120 Y96.870 E18.58130
G1 X151.038 Y96.435 E18.67365
G1 X151.994 Y96.093 E18.76604
G1 X152.981 Y95.846 E18.85849
G1 X153.986 Y95.697 E18.95085
G1 X154.956 Y95.649 E19.03924
G1 X156.014 Y95.697 E19.13549
G1 X157.019 Y95.846 E19.22792
G1 X158.006 Y96.093 E19.32037
G1 X158.962 Y96.435 E19.41276
G1 X159.880 Y96.870 E19.50511
G1 X160.752 Y97.392 E19.59746
G1 X161.568 Y97.997 E19.68991
G1 X162.321 Y98.679 E19.78226
G1 X163.003 Y99.432 E19.87461
G1 X163.608 Y100.248 E19.96706
G1 X164.130 Y101.120 E20.05941
G1 X164.565 Y102.038 E20.15176
G1 X164.907 Y102.994 E20.24416
G1 X165.154 Y103.981 E20.33661
G1 X165.303 Y104.986 E20.42898
G1 X165.352 Y106.000 E20.52132
G1 X165.303 Y107.014 E20.61367
G1 X165.154 Y108.019 E20.70604
G1 X164.922 Y108.947 E20.79304
G1 X164.907 Y109.006 F7800.000
G1 E18.79304 F2400.00000
G92 E0
G1 X185.766 Y98.470 F7800.000
G1 E2.00000 F2400.00000
G1 F1800
G1 X185.279 Y97.442 E2.10346
G1 X184.895 Y96.369 E2.20708
G1 X184.619 Y95.263 E2.31072
G1 X184.452 Y94.138 E2.41416
G1 X184.395 Y93.000 E2.51774
G1 X184.452 Y91.862 E2.62131
G1 X184.619 Y90.737 E2.72475
G1 X184.895 Y89.631 E2.82839
G1 X185.279 Y88.558 E2.93201
G1 X185.766 Y87.530 E3.03547
G1 X186.351 Y86.554 E3.13895
G1 X187.030 Y85.638 E3.24261
G1 X187.794 Y84.794 E3.34613
G1 X188.638 Y84.030 E3.44965
G1 X189.554 Y83.351 E3.55330
G1 X190.530 Y82.766 E3.65678
G1 X191.558 Y82.279 E3.76024
G1 X192.631 Y81.895 E3.86387
G1 X193.759 Y81.614 E3.96956
G1 X194.864 Y81.452 E4.07111
G1 X195.954 Y81.398 E4.17032
G1 X197.134 Y81.452 E4.27778
G1 X198.263 Y81.619 E4.38152
G1 X199.369 Y81.895 E4.48516
G1 X200.442 Y82.279 E4.58879
G1 X201.470 Y82.766 E4.69225
G1 X202.446 Y83.351 E4.79573
G1 X203.362 Y84.030 E4.89938
G1 X204.206 Y84.794 E5.00290
G1 X204.970 Y85.638 E5.10642
G1 X205.649 Y86.554 E5.21007
G1 X206.234 Y87.530 E5.31356
G1 X206.721 Y88.558 E5.41702
G1 X207.105 Y89.631 E5.52064
G1 X207.381 Y90.737 E5.62428
G1 X207.548 Y91.863 E5.72779
G1 X207.604 Y93.000 E5.83129
G1 X207.548 Y94.137 E5.93479
G1 X207.381 Y95.263 E6.03830
G1 X207.105 Y96.369 E6.14194
G1 X206.721 Y97.442 E6.24556
G1 X206.234 Y98.470 E6.34902
G1 X205.649 Y99.446 E6.45250
G1 X204.970 Y100.362 E6.55616
G1 X204.206 Y101.206 E6.65968
G1 X203.362 Y101.970 E6.76320
G1 X202.446 Y102.649 E6.86685
G1 X201.470 Y103.234 E6.97033
G1 X200.442 Y103.721 E7.07379
G1 X199.369 Y104.105 E7.17742
G1 X198.263 Y104.381 E7.28105
G1 X197.137 Y104.548 E7.38457
G1 X196.000 Y104.604 E7.48806
G1 X194.863 Y104.548 E7.59156
G1 X193.737 Y104.381 E7.69507
G1 X192.631 Y104.105 E7.79871
G1 X191.558 Y103.721 E7.90233
G1 X190.530 Y103.234 E8.00579
G1 X189.554 Y102.649 E8.10928
G1 X188.638 Y101.970 E8.21293
G1 X187.794 Y101.206 E8.31645
G1 X187.030 Y100.362 E8.41997
G1 X186.351 Y99.446 E8.52362
G1 X185.797 Y98.521 E8.62165
G1 X186.318 Y98.175 F7800.000
G1 F1800
G1 X185.857 Y97.202 E8.71955
G1 X185.494 Y96.187 E8.81756
G1 X185.233 Y95.141 E8.91561
G1 X185.075 Y94.076 E9.01351
G1 X185.021 Y93.000 E9.11148
G1 X185.075 Y91.924 E9.20944
G1 X185.233 Y90.859 E9.30734
G1 X185.494 Y89.813 E9.40539
G1 X185.857 Y88.798 E9.50340
G1 X186.318 Y87.825 E9.60130
G1 X186.871 Y86.901 E9.69922
G1 X187.513 Y86.035 E9.79727
G1 X188.237 Y85.237 E9.89520
G1 X189.035 Y84.513 E9.99314
G1 X189.901 Y83.871 E10.09119
G1 X190.825 Y83.318 E10.18911
G1 X191.798 Y82.857 E10.28701
G1 X192.813 Y82.494 E10.38502
G1 X193.880 Y82.227 E10.48506
G1 X194.925 Y82.075 E10.58107
G1 X195.955 Y82.023 E10.67485
G1 X197.074 Y82.074 E10.77671
G1 X198.141 Y82.233 E10.87479
G1 X199.187 Y82.494 E10.97284
G1 X200.202 Y82.857 E11.07084
G1 X201.175 Y83.318 E11.16875
G1 X202.099 Y83.871 E11.26666
G1 X202.965 Y84.513 E11.36472
G1 X203.763 Y85.237 E11.46265
G1 X204.487 Y86.035 E11.56059
G1 X205.129 Y86.901 E11.65864
G1 X205.682 Y87.825 E11.75655
G1 X206.143 Y88.798 E11.85446
G1 X206.506 Y89.813 E11.95247
G1 X206.767 Y90.859 E12.05051
G1 X206.925 Y91.924 E12.14846
G1 X206.978 Y93.000 E12.24638
G1 X206.925 Y94.076 E12.34430
G1 X206.767 Y95.141 E12.44224
G1 X206.506 Y96.187 E12.54028
G1 X206.143 Y97.202 E12.63829
G1 X205.682 Y98.175 E12.73620
G1 X205.129 Y99.099 E12.83411
G1 X204.487 Y99.965 E12.93216
G1 X203.763 Y100.763 E13.03010
G1 X202.965 Y101.487 E13.12804
G1 X202.099 Y102.129 E13.22609
G1 X201.175 Y102.682 E13.32400
G1 X200.202 Y103.143 E13.42191
G1 X199.187 Y103.506 E13.51992
G1 X198.141 Y103.767 E13.61796
G1 X197.076 Y103.925 E13.71590
G1 X196.000 Y103.978 E13.81382
G1 X194.924 Y103.925 E13.91174
G1 X193.859 Y103.767 E14.00969
G1 X192.813 Y103.506 E14.10773
G1 X191.798 Y103.143 E14.20574
G1 X190.825 Y102.682 E14.30365
G1 X189.901 Y102.129 E14.40156
G1 X189.035 Y101.487 E14.49961
G1 X188.237 Y100.763 E14.59755
G1 X187.513 Y99.965 E14.69548
G1 X186.871 Y99.099 E14.79353
G1 X186.349 Y98.227 E14.88599
G1 X186.870 Y97.880 F7800.000
G1 F1800
G1 X186.435 Y96.962 E14.97834
G1 X186.093 Y96.006 E15.07074
G1 X185.846 Y95.019 E15.16319
G1 X185.697 Y94.014 E15.25555
G1 X185.647 Y93.000 E15.34791
G1 X185.697 Y91.986 E15.44027
G1 X185.846 Y90.981 E15.53263
G1 X186.093 Y89.994 E15.62508
G1 X186.435 Y89.038 E15.71748
G1 X186.870 Y88.120 E15.80983
G1 X187.392 Y87.248 E15.90218
G1 X187.997 Y86.432 E15.99463
G1 X188.679 Y85.679 E16.08698
G1 X189.432 Y84.997 E16.17933
G1 X190.248 Y84.392 E16.27178
G1 X191.120 Y83.870 E16.36413
G1 X192.038 Y83.435 E16.45648
G1 X192.994 Y83.093 E16.54887
G1 X194.001 Y82.841 E16.64325
G1 X194.986 Y82.697 E16.73372
G1 X195.956 Y82.649 E16.82208
G1 X197.014 Y82.697 E16.91833
G1 X198.019 Y82.846 E17.01076
G1 X199.006 Y83.093 E17.10321
G1 X199.962 Y83.435 E17.19560
G1 X200.880 Y83.870 E17.28795
G1 X201.752 Y84.392 E17.38030
G1 X202.568 Y84.997 E17.47275
G1 X203.321 Y85.679 E17.56510
G1 X204.003 Y86.432 E17.65745
G1 X204.608 Y87.248 E17.74990
G1 X205.130 Y88.120 E17.84225
G1 X205.565 Y89.038 E17.93460
G1 X205.907 Y89.994 E18.02699
G1 X206.154 Y90.981 E18.11944
G1 X206.303 Y91.986 E18.21182
G1 X206.352 Y93.000 E18.30416
G1 X206.303 Y94.014 E18.39650
G1 X206.154 Y95.019 E18.48888
G1 X205.907 Y96.006 E18.58133
G1 X205.565 Y96.962 E18.67372
G1 X205.130 Y97.880 E18.76607
G1 X204.608 Y98.752 E18.85842
G1 X204.003 Y99.568 E18.95087
G1 X203.321 Y100.321 E19.04322
G1 X202.568 Y101.003 E19.13557
G1 X201.752 Y101.608 E19.22802
G1 X200.880 Y102.130 E19.32037
G1 X199.962 Y102.565 E19.41272
G1 X199.006 Y102.907 E19.50511
G1 X198.019 Y103.154 E19.59756
G1 X197.014 Y103.303 E19.68994
G1 X196.000 Y103.352 E19.78228
G1 X194.986 Y103.303 E19.87462
G1 X193.981 Y103.154 E19.96700
G1 X192.994 Y102.907 E20.05945
G1 X192.038 Y102.565 E20.15184
G1 X191.120 Y102.130 E20.24419
G1 X190.248 Y101.608 E20.33654
G1 X189.432 Y101.003 E20.42899
G1 X188.679 Y100.321 E20.52134
G1 X187.997 Y99.568 E20.61369
G1 X187.392 Y98.752 E20.70614
G1 X186.901 Y97.932 E20.79304
G1 X186.870 Y97.880 F7800.000
G1 E18.79304 F2400.00000
G92 E0
G1 X217.400 Y71.600 F7800.000
G1 E2.00000 F2400.00000
G1 F1800
G1 X217.400 Y178.400 E11.71132
G1 X132.600 Y178.400 E19.42219
G1 X132.600 Y71.600 E29.13351
G1 X217.340 Y71.600 E36.83892
G1 X218.025 Y70.975 F7800.000
G1 F1800
G1 X218.025 Y179.025 E46.66388
G1 X131.975 Y179.025 E54.48839
G1 X131.975 Y70.975 E64.31335
G1 X217.965 Y70.975 E72.13241
G1 X218.650 Y70.350 F7800.000
G1 F1800
G1 X218.650 Y179.650 E82.07101
G1 X131.350 Y179.650 E90.00916
G1 X131.350 Y70.350 E99.94777
G1 X218.590 Y70.350 E107.88046
G1 X218.561 Y70.740 F7800.000
G1 E105.88046 F2400.00000
G92 E0
G1 X206.390 Y99.381 F7800.000
G1 E2.00000 F2400.00000
G1 F1800
G1 X216.842 Y88.929 E3.35020
G1 X216.842 Y88.041 E3.43130
G1 X207.286 Y97.597 E4.66574
G1 X207.637 Y96.616 E4.76087
G1 X207.723 Y96.272 E4.79332
G1 X216.842 Y87.154 E5.97128
G1 X216.842 Y86.266 E6.05237
G1 X207.976 Y95.132 E7.19773
G1 X208.104 Y94.264 E7.27782
G1 X208.112 Y94.108 E7.29216
G1 X216.842 Y85.378 E8.41991
G1 X216.842 Y84.490 E8.50100
G1 X208.158 Y93.174 E9.62284
G1 X208.126 Y92.318 E9.70113
G1 X216.842 Y83.602 E10.82702
G1 X216.842 Y82.715 E10.90812
G1 X208.051 Y91.506 E12.04380
G1 X207.936 Y90.732 E12.11520
G1 X216.842 Y81.827 E13.26570
G1 X216.842 Y80.939 E13.34679
G1 X207.763 Y90.018 E14.51967
G1 X207.637 Y89.516 E14.56693
G1 X207.569 Y89.324 E14.58554
G1 X216.842 Y80.051 E15.78350
G1 X216.842 Y79.163 E15.86459
G1 X207.334 Y88.671 E17.09279
G1 X207.232 Y88.385 E17.12050
G1 X207.071 Y88.046 E17.15479
G1 X216.842 Y78.276 E18.41696
G1 X216.842 Y77.388 E18.49806
G1 X206.786 Y87.443 E19.79709
G1 X206.465 Y86.877 E19.85658
G1 X216.842 Y76.500 E21.19712
G1 X216.842 Y75.612 E21.27822
G1 X206.132 Y86.321 E22.66170
G1 X205.758 Y85.808 E22.71975
G1 X216.842 Y74.724 E24.15155
G1 X216.842 Y73.837 E24.23265
G1 X205.380 Y85.299 E25.71338
G1 X204.957 Y84.833 E25.77080
G1 X216.842 Y72.949 E27.30607
G1 X216.842 Y72.158 E27.37827
G1 X216.744 Y72.158 E27.38716
G1 X204.531 Y84.372 E28.96500
G1 X204.065 Y83.950 E29.02242
G1 X215.856 Y72.158 E30.54572
G1 X214.969 Y72.158 E30.62682
G1 X203.590 Y83.537 E32.09673
G1 X203.081 Y83.159 E32.15471
G1 X214.081 Y72.158 E33.57579
G1 X213.193 Y72.158 E33.65689
G1 X202.557 Y82.795 E35.03095
G1 X202.001 Y82.462 E35.09008
G1 X212.305 Y72.158 E36.42120
G1 X211.417 Y72.158 E36.50230
G1 X201.425 Y82.151 E37.79324
G1 X200.822 Y81.866 E37.85413
G1 X210.530 Y72.158 E39.10822
G1 X209.642 Y72.158 E39.18931
G1 X200.186 Y81.614 E40.41088
G1 X199.532 Y81.380 E40.47430
G1 X208.754 Y72.158 E41.66562
G1 X207.866 Y72.158 E41.74672
