; generated by Slic3r 1.3.0 on 2020-03-29 at 11:05:58

; external perimeters extrusion width = 0.44mm (3.38mm^3/s)
; perimeters extrusion width = 0.48mm (7.54mm^3/s)
; infill extrusion width = 0.48mm (10.05mm^3/s)
; solid infill extrusion width = 0.48mm (2.51mm^3/s)
; top infill extrusion width = 0.48mm (1.88mm^3/s)

M107
M190 S100 ; set bed temperature and wait for it to be reached
M104 S245 ; set temperature
G28 ; home all axes
G1 Z5 F5000 ; lift nozzle

; Filament gcode

M109 S245 ; set temperature and wait for it to be reached
G21 ; set units to millimeters
G90 ; use absolute coordinates
M82 ; use absolute distances for extrusion
G92 E0
G1 Z0.350 F7800.000
G1 E-2.00000 F2400.00000
G92 E0
G1 X147.415 Y105.753 F7800.000
G1 E2.00000 F2400.00000
G1 F1800
G1 X149.168 Y104.274 E2.20854
G1 X151.320 Y103.481 E2.41708
G1 X152.500 Y103.375 E2.52479
G1 X197.500 Y103.375 E6.61662
G1 X199.759 Y103.772 E6.82517
G1 X201.747 Y104.915 E7.03371
G1 X203.226 Y106.668 E7.24225
G1 X204.019 Y108.820 E7.45079
G1 X204.125 Y110.000 E7.55850
G1 X204.125 Y140.000 E10.28639
G1 X203.728 Y142.259 E10.49493
G1 X202.585 Y144.247 E10.70348
G1 X200.832 Y145.726 E10.91202
G1 X198.680 Y146.519 E11.12056
G1 X197.500 Y146.625 E11.22827
G1 X152.500 Y146.625 E15.32010
G1 X150.241 Y146.228 E15.52864
G1 X148.253 Y145.085 E15.73719
G1 X146.774 Y143.332 E15.94573
G1 X145.981 Y141.180 E16.15427
G1 X145.875 Y140.000 E16.26198
G1 X145.875 Y110.000 E18.98987
G1 X146.272 Y107.741 E19.19841
G1 X147.386 Y105.805 E19.40150
G1 E17.40150 F2400.00000
G92 E0
G1 X187.853 Y138.352 F7800.000
G1 E2.00000 F2400.00000
G1 F1800
G1 X176.147 Y138.352 E3.06442
G1 X176.147 Y134.647 E3.40132
G1 X187.853 Y134.647 E4.46574
G1 X187.853 Y138.292 E4.79717
G1 X188.017 Y138.717 F7800.000
G1 E2.79717 F2400.00000
G92 E0
G1 X189.103 Y133.397 F7800.000
G1 E2.00000 F2400.00000
G1 F1800
G1 X174.897 Y133.397 E3.29171
G1 X174.897 Y138.400 E3.74663
G1 X154.100 Y138.400 E5.63773
G1 X154.100 Y129.220 E6.47248
G1 X154.357 Y129.135 E6.49712
G1 X154.564 Y129.414 E6.52877
G1 X155.049 Y129.951 E6.59450
G1 X155.585 Y130.436 E6.66024
G1 X156.164 Y130.865 E6.72576
G1 X156.783 Y131.235 E6.79132
G1 X157.436 Y131.545 E6.85701
G1 X158.115 Y131.788 E6.92266
G1 X158.816 Y131.963 E6.98828
G1 X159.530 Y132.069 E7.05393
G1 X160.250 Y132.104 E7.11951
G1 X160.970 Y132.069 E7.18508
G1 X161.684 Y131.963 E7.25073
G1 X162.385 Y131.788 E7.31635
G1 X163.064 Y131.545 E7.38200
G1 X163.717 Y131.235 E7.44769
G1 X164.336 Y130.865 E7.51326
G1 X164.914 Y130.436 E7.57877
G1 X165.451 Y129.951 E7.64451
G1 X165.936 Y129.414 E7.71024
G1 X166.365 Y128.836 E7.77576
G1 X166.735 Y128.217 E7.84132
G1 X167.927 Y125.700 E8.09457
G1 X154.100 Y125.700 E9.35191
G1 X154.100 Y123.900 E9.51562
G1 X167.975 Y123.900 E10.77727
G1 X166.735 Y121.283 E11.04058
G1 X166.365 Y120.664 E11.10614
G1 X165.936 Y120.086 E11.17166
G1 X165.451 Y119.549 E11.23740
G1 X164.914 Y119.064 E11.30313
G1 X164.336 Y118.635 E11.36865
G1 X163.717 Y118.265 E11.43421
G1 X163.064 Y117.955 E11.49990
G1 X162.385 Y117.712 E11.56555
G1 X161.684 Y117.537 E11.63118
G1 X160.971 Y117.431 E11.69680
G1 X160.241 Y117.396 E11.76325
G1 X159.528 Y117.431 E11.82810
G1 X158.816 Y117.537 E11.89362
G1 X158.115 Y117.712 E11.95925
G1 X157.436 Y117.955 E12.02489
G1 X156.783 Y118.265 E12.09059
G1 X156.164 Y118.635 E12.15615
G1 X155.586 Y119.064 E12.22167
G1 X155.049 Y119.549 E12.28740
G1 X154.564 Y120.086 E12.35314
G1 X154.357 Y120.365 E12.38478
G1 X154.100 Y120.280 E12.40942
G1 X154.100 Y111.600 E13.19871
G1 X195.900 Y111.600 E16.99961
G1 X195.900 Y138.400 E19.43656
G1 X189.103 Y138.400 E20.05465
G1 X189.103 Y133.457 E20.50412
G1 X188.478 Y134.022 F7800.000
G1 F1800
G1 X175.522 Y134.022 E21.68218
G1 X175.522 Y139.025 E22.13710
G1 X153.475 Y139.025 E24.14185
G1 X153.475 Y126.829 E25.25079
G1 X153.768 Y126.764 E25.27807
G1 X154.316 Y127.922 E25.39464
G1 X154.655 Y128.488 E25.45464
G1 X155.048 Y129.018 E25.51459
G1 X155.492 Y129.508 E25.57472
G1 X155.982 Y129.952 E25.63484
G1 X156.512 Y130.345 E25.69480
G1 X157.078 Y130.684 E25.75480
G1 X157.675 Y130.967 E25.81491
G1 X158.297 Y131.189 E25.87495
G1 X158.938 Y131.349 E25.93500
G1 X159.591 Y131.446 E25.99504
G1 X160.250 Y131.478 E26.05506
G1 X160.909 Y131.446 E26.11507
G1 X161.562 Y131.349 E26.17511
G1 X162.203 Y131.189 E26.23517
G1 X162.825 Y130.967 E26.29520
G1 X163.422 Y130.684 E26.35532
G1 X163.988 Y130.345 E26.41531
G1 X164.518 Y129.952 E26.47527
G1 X165.008 Y129.508 E26.53540
G1 X165.452 Y129.018 E26.59552
G1 X165.845 Y128.488 E26.65548
G1 X166.184 Y127.922 E26.71547
G1 X166.940 Y126.325 E26.87616
G1 X153.475 Y126.325 E28.10055
G1 X153.475 Y123.275 E28.37790
G1 X166.987 Y123.275 E29.60660
G1 X166.184 Y121.578 E29.77735
G1 X165.845 Y121.012 E29.83734
G1 X165.452 Y120.482 E29.89730
G1 X165.008 Y119.992 E29.95743
G1 X164.518 Y119.548 E30.01755
G1 X163.988 Y119.155 E30.07751
G1 X163.422 Y118.816 E30.13750
G1 X162.825 Y118.533 E30.19762
G1 X162.203 Y118.311 E30.25765
G1 X161.562 Y118.151 E30.31771
G1 X160.909 Y118.054 E30.37773
G1 X160.241 Y118.021 E30.43858
G1 X159.590 Y118.054 E30.49786
G1 X158.938 Y118.151 E30.55783
G1 X158.297 Y118.311 E30.61788
G1 X157.675 Y118.533 E30.67792
G1 X157.078 Y118.816 E30.73803
G1 X156.512 Y119.155 E30.79803
G1 X155.982 Y119.548 E30.85798
G1 X155.492 Y119.992 E30.91811
G1 X155.048 Y120.482 E30.97823
G1 X154.655 Y121.012 E31.03819
G1 X154.316 Y121.578 E31.09819
G1 X153.768 Y122.736 E31.21476
G1 X153.475 Y122.671 E31.24203
G1 X153.475 Y110.975 E32.30552
G1 X196.525 Y110.975 E36.22005
G1 X196.525 Y139.025 E38.77065
G1 X188.478 Y139.025 E39.50238
G1 X188.478 Y134.082 E39.95184
G1 E37.95184 F2400.00000
G92 E0
G1 X166.000 Y122.650 F7800.000
G1 E2.00000 F2400.00000
G1 F1800
G1 X154.500 Y122.650 E3.04571
G1 X154.868 Y121.873 E3.12391
G1 X155.176 Y121.359 E3.17833
G1 X155.532 Y120.879 E3.23273
G1 X155.934 Y120.434 E3.28725
G1 X156.379 Y120.032 E3.34176
G1 X156.859 Y119.676 E3.39616
G1 X157.373 Y119.368 E3.45058
G1 X157.915 Y119.111 E3.50512
G1 X158.478 Y118.910 E3.55955
G1 X159.060 Y118.764 E3.61403
G1 X159.651 Y118.676 E3.66844
G1 X160.242 Y118.647 E3.72215
G1 X160.848 Y118.676 E3.77739
G1 X161.440 Y118.764 E3.83182
G1 X162.022 Y118.910 E3.88630
G1 X162.585 Y119.111 E3.94073
G1 X163.127 Y119.368 E3.99526
G1 X163.641 Y119.676 E4.04969
G1 X164.121 Y120.032 E4.10409
G1 X164.566 Y120.434 E4.15860
G1 X164.968 Y120.879 E4.21312
G1 X165.324 Y121.359 E4.26752
G1 X165.632 Y121.873 E4.32194
G1 X165.974 Y122.596 E4.39468
G1 X166.064 Y123.045 F7800.000
G1 E2.39468 F2400.00000
G92 E0
G1 X165.953 Y126.950 F7800.000
G1 E2.00000 F2400.00000
G1 F1800
G1 X165.632 Y127.627 E2.06814
G1 X165.324 Y128.141 E2.12256
G1 X164.968 Y128.621 E2.17696
G1 X164.566 Y129.066 E2.23148
G1 X164.121 Y129.468 E2.28599
G1 X163.641 Y129.824 E2.34039
G1 X163.127 Y130.132 E2.39481
G1 X162.585 Y130.389 E2.44935
G1 X162.022 Y130.590 E2.50378
G1 X161.440 Y130.736 E2.55826
G1 X160.848 Y130.824 E2.61270
G1 X160.250 Y130.852 E2.66715
G1 X159.652 Y130.824 E2.72161
G1 X159.060 Y130.736 E2.77604
G1 X158.478 Y130.590 E2.83053
G1 X157.915 Y130.389 E2.88495
G1 X157.373 Y130.132 E2.93949
G1 X156.859 Y129.824 E2.99391
G1 X156.379 Y129.468 E3.04831
G1 X155.934 Y129.066 E3.10283
G1 X155.532 Y128.621 E3.15734
G1 X155.176 Y128.141 E3.21174
G1 X154.868 Y127.627 E3.26617
G1 X154.547 Y126.950 E3.33430
G1 X165.893 Y126.950 E4.36594
G1 X166.338 Y127.058 F7800.000
G1 E2.36594 F2400.00000
G92 E0
G1 X152.850 Y139.650 F7800.000
G1 E2.00000 F2400.00000
G1 F1800
G1 X152.850 Y110.350 E4.66424
G1 X197.150 Y110.350 E8.69242
G1 X197.150 Y139.650 E11.35665
G1 X152.910 Y139.650 E15.37938
G1 X152.979 Y139.271 F7800.000
G1 E13.37938 F2400.00000
G92 E0
G1 X154.111 Y128.887 F7800.000
G1 E2.00000 F2400.00000
G1 F1800
G1 X153.809 Y127.684 E2.03564
G1 X153.787 Y128.535 F7800.000
G1 F1800
G1 X154.467 Y128.770 E2.04918
G1 E0.04918 F2400.00000
G92 E0
G1 X154.912 Y130.796 F7800.000
G1 E2.00000 F2400.00000
G1 F1800
G1 X154.658 Y130.566 E2.03148
G1 X154.658 Y131.050 E2.07594
G1 X155.045 Y130.663 E2.12618
G1 X155.255 Y130.853 E2.15224
G1 X155.538 Y131.063 E2.18462
G1 X154.658 Y131.943 E2.29897
G1 X154.658 Y132.836 E2.38107
G1 X156.066 Y131.428 E2.56403
G1 X156.631 Y131.757 E2.62408
G1 X154.658 Y133.729 E2.88042
G1 X154.658 Y134.623 E2.96252
G1 X157.237 Y132.044 E3.29766
G1 X157.892 Y132.282 E3.36176
G1 X154.658 Y135.516 E3.78213
G1 X154.658 Y136.409 E3.86423
G1 X158.598 Y132.470 E4.37627
G1 X158.760 Y132.510 E4.39162
G1 X159.361 Y132.600 E4.44749
G1 X154.658 Y137.302 E5.05875
G1 X154.658 Y137.842 E5.10832
G1 X155.012 Y137.842 E5.14085
G1 X160.197 Y132.657 E5.81472
G1 X161.126 Y132.621 E5.90019
G1 X155.906 Y137.842 E6.57873
G1 X156.799 Y137.842 E6.66083
G1 X162.216 Y132.424 E7.36497
G1 X162.632 Y132.320 E7.40441
G1 X163.370 Y132.056 E7.47643
G1 X163.574 Y131.960 E7.49715
G1 X157.692 Y137.842 E8.26167
G1 X158.585 Y137.842 E8.34377
G1 X184.269 Y112.158 E11.68210
G1 X185.162 Y112.158 E11.76420
G1 X159.479 Y137.842 E15.10253
G1 X160.372 Y137.842 E15.18463
G1 X186.055 Y112.158 E18.52296
G1 X186.948 Y112.158 E18.60506
G1 X161.265 Y137.842 E21.94339
G1 X162.158 Y137.842 E22.02549
G1 X187.842 Y112.158 E25.36382
G1 X188.735 Y112.158 E25.44592
G1 X163.052 Y137.842 E28.78425
G1 X163.945 Y137.842 E28.86635
G1 X189.628 Y112.158 E32.20468
G1 X190.521 Y112.158 E32.28678
G1 X164.838 Y137.842 E35.62512
G1 X165.731 Y137.842 E35.70722
G1 X191.415 Y112.158 E39.04555
G1 X192.308 Y112.158 E39.12765
G1 X166.625 Y137.842 E42.46598
G1 X167.518 Y137.842 E42.54808
G1 X193.201 Y112.158 E45.88641
G1 X194.094 Y112.158 E45.96851
G1 X168.411 Y137.842 E49.30684
G1 X169.304 Y137.842 E49.38894
G1 X174.206 Y132.940 E50.02606
G1 X174.206 Y132.839 E50.03537
G1 X174.307 Y132.839 E50.04469
G1 X194.988 Y112.158 E52.73273
G1 X195.342 Y112.158 E52.76526
G1 X195.342 Y112.698 E52.81483
G1 X175.201 Y132.839 E55.43276
G1 X176.094 Y132.839 E55.51486
G1 X195.342 Y113.591 E58.01669
G1 X195.342 Y114.484 E58.09879
G1 X176.987 Y132.839 E60.48451
G1 X177.880 Y132.839 E60.56661
G1 X195.342 Y115.377 E62.83622
G1 X195.342 Y116.271 E62.91832
G1 X178.774 Y132.839 E65.07183
G1 X179.667 Y132.839 E65.15393
G1 X195.342 Y117.164 E67.19133
G1 X195.342 Y118.057 E67.27343
G1 X180.560 Y132.839 E69.19473
G1 X181.454 Y132.839 E69.27683
G1 X195.342 Y118.951 E71.08202
G1 X195.342 Y119.844 E71.16412
G1 X182.347 Y132.839 E72.85320
G1 X183.240 Y132.839 E72.93530
G1 X195.342 Y120.737 E74.50827
G1 X195.342 Y121.630 E74.59037
G1 X184.133 Y132.839 E76.04724
G1 X185.027 Y132.839 E76.12934
G1 X195.342 Y122.524 E77.47011
G1 X195.342 Y123.417 E77.55221
G1 X185.920 Y132.839 E78.77686
G1 X186.813 Y132.839 E78.85896
G1 X195.342 Y124.310 E79.96751
G1 X195.342 Y125.203 E80.04961
G1 X187.706 Y132.839 E81.04206
G1 X188.600 Y132.839 E81.12416
G1 X195.342 Y126.097 E82.00049
G1 X195.342 Y126.990 E82.08259
G1 X189.493 Y132.839 E82.84282
G1 X189.661 Y132.839 E82.85831
G1 X189.661 Y133.563 E82.92492
G1 X195.342 Y127.883 E83.66325
G1 X195.342 Y128.776 E83.74535
G1 X189.661 Y134.457 E84.48368
G1 X189.661 Y135.350 E84.56577
G1 X195.342 Y129.670 E85.30410
G1 X195.342 Y130.563 E85.38620
G1 X189.661 Y136.243 E86.12453
G1 X189.661 Y137.136 E86.20663
G1 X195.342 Y131.456 E86.94495
G1 X195.342 Y132.349 E87.02705
G1 X189.849 Y137.842 E87.74094
G1 X190.743 Y137.842 E87.82304
G1 X195.342 Y133.243 E88.42082
G1 X195.342 Y134.136 E88.50292
G1 X191.636 Y137.842 E88.98459
G1 X192.529 Y137.842 E89.06669
G1 X195.342 Y135.029 E89.43226
G1 X195.342 Y135.922 E89.51436
G1 X193.422 Y137.842 E89.76382
G1 X194.316 Y137.842 E89.84592
G1 X195.342 Y136.816 E89.97927
G1 X195.342 Y137.709 E90.06137
G1 X195.209 Y137.842 E90.07862
G1 E88.07862 F2400.00000
G92 E0
G1 X173.771 Y137.842 F7800.000
G1 E2.00000 F2400.00000
G1 F1800
G1 X174.339 Y137.274 E2.07382
G1 X174.339 Y136.380 E2.15592
G1 X172.877 Y137.842 E2.34584
G1 X171.984 Y137.842 E2.42794
G1 X174.339 Y135.487 E2.73397
G1 X174.339 Y134.594 E2.81607
G1 X171.091 Y137.842 E3.23820
G1 X170.198 Y137.842 E3.32030
G1 X174.339 Y133.701 E3.85854
G1 X174.339 Y132.807 E3.94064
G1 E1.94064 F2400.00000
G92 E0
G1 X167.460 Y128.074 F7800.000
G1 E2.00000 F2400.00000
G1 F1800
G1 X183.375 Y112.158 E4.06871
G1 X182.482 Y112.158 E4.15081
G1 X168.263 Y126.377 E5.99897
G1 X168.848 Y125.142 E6.12460
G1 X168.606 Y125.142 E6.14693
G1 X181.589 Y112.158 E7.83450
G1 X180.696 Y112.158 E7.91660
G1 X168.692 Y124.161 E9.47678
G1 X168.405 Y123.555 E9.53842
G1 X179.802 Y112.158 E11.01980
G1 X178.909 Y112.158 E11.10190
G1 X168.118 Y122.949 E12.50449
G1 X167.831 Y122.343 E12.56614
G1 X178.016 Y112.158 E13.88993
G1 X177.123 Y112.158 E13.97203
G1 X167.544 Y121.737 E15.21704
G1 X167.257 Y121.131 E15.27869
G1 X176.229 Y112.158 E16.44490
G1 X175.336 Y112.158 E16.52700
G1 X166.928 Y120.566 E17.61983
G1 X166.819 Y120.383 E17.63944
G1 X166.563 Y120.038 E17.67889
G1 X174.443 Y112.158 E18.70311
G1 X173.550 Y112.158 E18.78521
G1 X166.163 Y119.545 E19.74532
G1 X165.729 Y119.085 E19.80340
G1 X172.656 Y112.158 E20.70376
G1 X171.763 Y112.158 E20.78586
G1 X165.260 Y118.661 E21.63107
G1 X164.749 Y118.279 E21.68973
G1 X170.870 Y112.158 E22.48531
G1 X169.976 Y112.158 E22.56741
G1 X164.202 Y117.933 E23.31795
G1 X163.946 Y117.779 E23.34540
G1 X163.618 Y117.624 E23.37878
G1 X169.083 Y112.158 E24.08917
G1 X168.190 Y112.158 E24.17127
G1 X162.992 Y117.356 E24.84686
G1 X162.500 Y117.180 E24.89494
G1 X162.320 Y117.135 E24.91195
G1 X167.297 Y112.158 E25.55879
G1 X166.403 Y112.158 E25.64089
G1 X161.594 Y116.968 E26.26605
G1 X160.965 Y116.875 E26.32444
G1 X160.802 Y116.867 E26.33949
G1 X165.510 Y112.158 E26.95148
G1 X164.617 Y112.158 E27.03358
G1 X159.927 Y116.849 E27.64322
G1 X159.400 Y116.875 E27.69165
G1 X158.939 Y116.943 E27.73456
G1 X163.724 Y112.158 E28.35654
G1 X162.830 Y112.158 E28.43864
G1 X157.776 Y117.212 E29.09555
G1 X157.130 Y117.444 E29.15868
G1 X156.421 Y117.779 E29.23072
G1 X156.159 Y117.936 E29.25880
G1 X161.937 Y112.158 E30.00982
G1 X161.044 Y112.158 E30.09192
G1 X154.658 Y118.544 E30.92191
G1 X154.658 Y117.651 E31.00401
G1 X160.151 Y112.158 E31.71790
G1 X159.257 Y112.158 E31.80000
G1 X154.658 Y116.757 E32.39778
G1 X154.658 Y115.864 E32.47988
G1 X158.364 Y112.158 E32.96156
G1 X157.471 Y112.158 E33.04366
G1 X154.658 Y114.971 E33.40923
G1 X154.658 Y114.078 E33.49133
G1 X156.578 Y112.158 E33.74079
G1 X155.684 Y112.158 E33.82289
G1 X154.658 Y113.184 E33.95625
G1 X154.658 Y112.291 E34.03835
G1 X154.791 Y112.158 E34.05560
G1 E32.05560 F2400.00000
G92 E0
G1 X154.864 Y124.591 F7800.000
G1 E2.00000 F2400.00000
G1 F1800
G1 X154.658 Y124.591 E2.01891
G1 X154.658 Y124.797 E2.03783
G1 X154.997 Y124.458 E2.08180
G1 X155.890 Y124.458 E2.16390
G1 X155.207 Y125.142 E2.25272
G1 X156.100 Y125.142 E2.33481
G1 X156.783 Y124.458 E2.42363
G1 X157.676 Y124.458 E2.50573
G1 X156.993 Y125.142 E2.59454
G1 X157.886 Y125.142 E2.67664
G1 X158.570 Y124.458 E2.76545
G1 X159.463 Y124.458 E2.84755
G1 X158.780 Y125.142 E2.93636
G1 X159.673 Y125.142 E3.01846
G1 X160.356 Y124.458 E3.10727
G1 X161.250 Y124.458 E3.18937
G1 X160.566 Y125.142 E3.27818
G1 X161.459 Y125.142 E3.36028
G1 X162.143 Y124.458 E3.44910
G1 X163.036 Y124.458 E3.53120
G1 X162.353 Y125.142 E3.62001
G1 X163.246 Y125.142 E3.70211
G1 X163.929 Y124.458 E3.79092
G1 X164.823 Y124.458 E3.87302
G1 X164.139 Y125.142 E3.96183
G1 X165.033 Y125.142 E4.04393
G1 X165.716 Y124.458 E4.13274
G1 X166.609 Y124.458 E4.21484
G1 X165.926 Y125.142 E4.30366
G1 X166.819 Y125.142 E4.38575
G1 X167.502 Y124.458 E4.47457
G1 X168.396 Y124.458 E4.55667
G1 X167.712 Y125.142 E4.64548
G1 E2.64548 F2400.00000
G92 E0
G1 X175.835 Y139.001 F7800.000
G1 E2.00000 F2400.00000
G1 F1800
G1 X188.165 Y139.001 E3.07300
G1 E1.07300 F2400.00000
G92 E0
G1 X153.809 Y121.816 F7800.000
G1 E2.00000 F2400.00000
G1 F1800
G1 X154.111 Y120.613 E2.03564
G1 X154.467 Y120.730 F7800.000
G1 F1800
G1 X153.787 Y120.965 E2.04918
M104 S240 ; set temperature
G1 Z0.650 F7800.000
G1 E0.04918 F2400.00000
G92 E0
G1 X175.880 Y138.619 F7800.000
G1 E2.00000 F2400.00000
G1 F900
G1 X175.880 Y134.380 E2.22149
G1 X188.120 Y134.380 E2.86100
G1 X188.120 Y138.619 E3.08249
G1 X175.940 Y138.619 E3.71886
G1 X176.277 Y138.222 F7800.000
G1 F900
